packages/foundations/assets/icons/functional/images/transportation/ship_12_inverted.svg

<svg width="12" height="12" viewBox="0 0 12 12" fill="none" xmlns="http://www.w3.org/2000/svg">
<g clip-path="url(#clip0_2214_7275)">
<path fill-rule="evenodd" clip-rule="evenodd" d="M9.47542 9.05835C9.72973 9.33337 9.96785 9.4946 10.1392 9.4946C10.4209 9.4946 10.6492 9.72293 10.6492 10.0046C10.6492 10.2863 10.4209 10.5146 10.1392 10.5146C9.77753 10.5146 9.42933 10.3752 9.09465 10.0966C8.73196 10.3752 8.36803 10.5146 8.00288 10.5146C7.63773 10.5146 7.27745 10.3706 6.92205 10.0828C6.54466 10.3706 6.18198 10.5146 5.83401 10.5146C5.48605 10.5146 5.13393 10.379 4.77765 10.108C4.47254 10.379 4.14623 10.5146 3.7987 10.5146C3.45118 10.5146 3.08049 10.3702 2.68665 10.0816C2.39616 10.3103 2.08036 10.4246 1.73925 10.4246C1.45758 10.4246 1.22925 10.1963 1.22925 9.91463C1.22925 9.63296 1.45758 9.40463 1.73925 9.40463C1.89555 9.40463 2.07144 9.29934 2.26691 9.08877C2.45544 8.84973 2.81005 8.82804 3.02631 9.04232C3.08245 9.09795 3.50268 9.4946 3.75793 9.4946C3.9229 9.4946 4.11025 9.36781 4.31999 9.11422C4.50418 8.84828 4.88623 8.81882 5.10902 9.05336C5.1602 9.10724 5.56594 9.49446 5.83401 9.4946C6.08254 9.49473 6.5047 9.10795 6.55551 9.05421C6.75855 8.83947 7.10102 8.84172 7.30123 9.05909C7.35002 9.11207 7.74499 9.4946 8.02011 9.4946C8.18925 9.4946 8.43757 9.36066 8.73224 9.05227C8.93539 8.83966 9.27577 8.84244 9.47542 9.05835ZM7.58925 1.48535C7.79987 1.48535 7.98616 1.61436 8.06269 1.80567L8.26905 2.61335L4.12787 2.61759C3.87706 2.61759 3.65375 2.86362 3.65375 3.12361C3.65375 3.38361 3.90837 3.63335 4.12787 3.63335H8.52405L8.73705 4.48535H10.2602C10.5749 4.48535 10.8031 4.76285 10.7669 5.05642C10.7306 5.35 9.96818 6.9059 9.39268 7.47889C9.19162 7.70256 9.00604 7.86783 8.83594 7.97469C8.58079 8.13499 8.29724 8.231 7.98922 8.231C7.66154 8.231 7.31381 8.09765 6.94605 7.83095C6.59989 8.1883 6.24732 8.37294 5.88833 8.38488C5.52933 8.39682 5.16031 8.23618 4.78125 7.90295C4.47374 8.22517 4.14623 8.38629 3.7987 8.38629C3.45118 8.38629 3.09869 8.22317 2.74125 7.89695C2.42502 8.22317 2.09102 8.38629 1.73925 8.38629C1.47925 8.38629 1.22925 8.172 1.22925 7.90295V1.99535C1.22925 1.73535 1.42383 1.48535 1.73925 1.48535H7.58925ZM7.7614 4.68993C7.43003 4.68993 7.1614 4.95856 7.1614 5.28993C7.1614 5.6213 7.43003 5.88993 7.7614 5.88993C8.09278 5.88993 8.3614 5.6213 8.3614 5.28993C8.3614 4.95856 8.09278 4.68993 7.7614 4.68993ZM5.3614 4.68993C5.03003 4.68993 4.7614 4.95856 4.7614 5.28993C4.7614 5.6213 5.03003 5.88993 5.3614 5.88993C5.69278 5.88993 5.9614 5.6213 5.9614 5.28993C5.9614 4.95856 5.69278 4.68993 5.3614 4.68993ZM2.9614 4.68993C2.63003 4.68993 2.3614 4.95856 2.3614 5.28993C2.3614 5.6213 2.63003 5.88993 2.9614 5.88993C3.29278 5.88993 3.5614 5.6213 3.5614 5.28993C3.5614 4.95856 3.29278 4.68993 2.9614 4.68993Z" fill="#1A1C1F"/>
</g>
<defs>
<clipPath id="clip0_2214_7275">
<rect width="12" height="12" fill="white"/>
</clipPath>
</defs>
</svg>

<svg xmlns="http://www.w3.org/2000/svg" width="12" height="12" fill="none"><g clip-path="url(#a)"><path fill="#1A1C1F" fill-rule="evenodd" d="M9.475 9.058c.255.275.493.437.664.437a.51.51 0 1 1 0 1.02q-.542 0-1.044-.418-.545.417-1.092.418-.548 0-1.081-.432-.566.432-1.088.432t-1.056-.407q-.458.407-.98.407-.521 0-1.111-.433a1.5 1.5 0 0 1-.948.343.51.51 0 1 1 0-1.02q.235 0 .528-.316a.51.51 0 0 1 .76-.047c.055.056.476.453.73.453q.248 0 .563-.38a.51.51 0 0 1 .789-.062c.051.054.457.441.725.442.249 0 .67-.387.722-.44a.51.51 0 0 1 .745.004c.049.053.444.436.72.436.168 0 .417-.134.711-.443a.51.51 0 0 1 .743.006M7.59 1.485a.51.51 0 0 1 .474.32l.206.808-4.141.005c-.25 0-.474.246-.474.506s.254.51.474.51h4.396l.213.851h1.523a.51.51 0 0 1 .507.571c-.036.294-.799 1.85-1.374 2.423a2.8 2.8 0 0 1-.557.496c-.255.16-.539.256-.847.256q-.49 0-1.043-.4-.52.536-1.058.554t-1.107-.482q-.461.483-.982.483-.522 0-1.058-.489-.474.49-1.002.49c-.26 0-.51-.215-.51-.484V1.995c0-.26.195-.51.51-.51zm.172 3.205a.6.6 0 1 0 0 1.2.6.6 0 0 0 0-1.2m-2.4 0a.6.6 0 1 0 0 1.2.6.6 0 0 0 0-1.2m-2.4 0a.6.6 0 1 0 0 1.2.6.6 0 0 0 0-1.2" clip-rule="evenodd"/></g><defs><clipPath id="a"><path fill="#fff" d="M0 0h12v12H0z"/></clipPath></defs></svg>
